X:1
T:Amen, Jesus Han Skal Raade, 87.87.77
T:Amen, Jesus Han Skal Raade, 87.87.77
T:Anton Peter Berggreen, 1849
T:Public Domain Courtesy of the Cyber Hymnal™
C:Anton Peter Berggreen, 1849
Z:Public Domain
Z:Courtesy of the Cyber Hymnal™
%%score ( 1 2 ) ( 3 4 )
L:1/8
Q:1/4=115
M:4/4
K:C
V:1 treble 
V:2 treble 
V:3 bass 
V:4 bass 
V:1
 [EG]4 [CE]4 | [CD]2 [B,D]2 [CE]2 [DF]2 | [DF]4 [CE]4 | [Ec]4 [EB]4 | [CA]2 [CD]2 [B,G]2 [B,F]2 | %5
 [CE]8 | [^CA]4 [EG]4 | [DF]2 [DF]2 [Dd]2 [Ac]2 | [Gc]4 [GB]4 | [Ac]4 [EA]4 | %10
 [DG]2 [D^F]2 [DE]2 [DF]2 | [DG]8 | [Fd]4 [Ec]4 | [Dc]2 [DB]2 [DA]2 [DG]2 | [Cc]8 | [DF]4 [CE]4 | %16
 [CA]2 [DF]2 [CE]2 [B,D]2 | C8 |] %18
V:2
 x8 | x8 | x8 | x8 | x8 | x8 | x8 | x8 | x8 | x8 | x8 | x8 | x8 | x8 | x8 | x8 | x8 | C8 |] %18
V:3
 [C,C]4 [C,G,]4 | [F,A,]2 [F,G,]2 [E,G,]2 [B,,G,]2 | [C,G,]4 [C,G,]4 | A,4 [E,G,]4 | %4
 [F,A,]2 [F,A,]2 G,2 [G,,G,]2 | [C,G,]8 | [A,,A,]4 [^C,A,]4 | [D,A,]2 [D,A,]2 [F,A,]2 [^F,D]2 | %8
 [G,D]4 [G,D]4 | [C,E]4 [C,C]4 | [D,B,]2 [D,A,]2 [D,G,]2 [D,A,]2 | [G,,B,]8 | [B,,G,]4 [C,G,]4 | %13
 G,2 G,2 [F,A,]2 [F,B,]2 | [E,G,]8 | [B,,G,]4 [C,G,]4 | F,2 [F,A,]2 G,2 [G,,F,]2 | [C,E,]8 |] %18
V:4
 x8 | x8 | x8 | A,4 x4 | x4 G,2 x2 | x8 | x8 | x8 | x8 | x8 | x8 | x8 | x8 | x8 | x8 | x8 | %16
 F,2 x6 | x8 |] %18

